X:238
T: Der Hammerschmiedssohn
N: Q1088I
O: Mitteleuropa, Deutschland (DDR) , Brandenburg, bei Oderberg
N: Melodievergleich zu Q0088B, anderes Lied "Wassermanns Frau" .
R: ???
M: 2/4
L: 1/16
K: F
C2 | F2F2G2B2 | A2AGF2
GG | A2G2F2EG | D2C2z2
C2 | FFAAc2F2 | E2G2B2
c2 | A2A2BBE2 | F4z2

@@@ Tune index: 1293
